!!!COM: Bach, Johann Sebastian
!!!OPR: Joh. Seb. Bachs vierstimmige Choralges‰nge
!!!XEN: Four-part Chorales
!!!OTL: 46. Dir, dir, Jehova, will ich singen
!!!SCT: BWV 299
!!!SCA: Thematisch-systematisches Verzeichnis der musikalischen Werke Johann Sebastian Bach: Bach-Werke-Verzeichnis (Schmieder)
!!!YOR: Bach Gesellschaft Edition xxxix
!!!ENC: Steven Rasmussen
!!!CDT: 1685/3//-1750/7/28/
!!!OCY: Deutschland
!!!YEC: Copyright (c) 1994, 2000 Center for Computer Assisted Research in the Humanities
!!!YEM: Rights to all derivative editions reserved
!!!YEN: United States of America
**kern	**silbe	**kern	**silbe	**kern	**silbe	**kern	**silbe
*I:[SOPRANO]	*I:[SOPRANO]	*I:[ALTO]	*I:[ALTO]	*I:[TENORE]	*I:[TENORE]	*I:[BASSO]	*I:[BASSO]
*>[A,A,B]	*	*>[A,A,B]	*	*>[A,A,B]	*	*>[A,A,B]	*
*>A	*	*>A	*	*>A	*	*>A	*
*clefG2	*	*clefG2	*	*clefGv2	*	*clefF4	*
*k[b-e-]	*	*k[b-e-]	*	*k[b-e-]	*	*k[b-e-]	*
*B-:	*	*B-:	*	*B-:	*	*B-:	*
*M3/4	*	*M3/4	*	*M3/4	*	*M3/4	*
4f	Dir,Dir	4d	.	4B-	.	4B-	.
=1	=1	=1	=1	=1	=1	=1	=1
4b-	dir,will	4f	.	4B-	.	4D	.
8ddL	.	8b-L	.	8fL	.	4C	.
8ccJ	.	8aJ	.	8e-J	.	.	.
8ddL	Je-ich	4b-	.	4f	.	4BB-	.
8b-J	.	.	.	.	.	.	.
=2	=2	=2	=2	=2	=2	=2	=2
4gg	-ho-mei-	4b-	.	4e-	.	4E-	.
2ee-	-va,-ne	2g	.	8B-L	.	8GL	.
.	.	.	.	8A	.	8F	.
.	.	.	.	8B-	.	8G	.
.	.	.	.	8cJ	.	8E-J	.
=3	=3	=3	=3	=3	=3	=3	=3
4ff	willLie-	4f	.	2d	.	8B-L	.
.	.	.	.	.	.	8AJ	.
4b-	.	8gL	.	.	.	4G	.
.	.	8aJ	.	.	.	.	.
4ee-	ich-der	4b-	.	4g	.	4E-	.
=4	=4	=4	=4	=4	=4	=4	=4
2ccT	sin-brin-	4b-	.	4.f	.	2F	.
.	.	4a	.	.	.	.	.
.	.	.	.	8e-	.	.	.
4b-;	-gen,-gen;	4f;	.	4d;	.	4BB-;	.
=5	=5	=5	=5	=5	=5	=5	=5
4cc	dennach	4f	.	8cL	.	8AL	.
.	.	.	.	8B-J	.	8GJ	.
4ee-	wogib	4.f	.	8cL	.	8AL	.
.	.	.	.	8AJ	.	8FJ	.
4dd	istmir	.	.	4B-	.	4B-	.
.	.	8g	.	.	.	.	.
=6	=6	=6	=6	=6	=6	=6	=6
4cc	dochdei-	4a	.	4c	.	4F	.
8ddL	ein-nes	8b-L	.	4F	.	4E-	.
8ccJ	.	8aJ	.	.	.	.	.
8ddL	sol-Gei-	4b-	.	4F	.	4D	.
8b-J	.	.	.	.	.	.	.
=7	=7	=7	=7	=7	=7	=7	=7
8aL	-cher-stes	4e-	.	4c	.	4C	.
8b-J	.	.	.	.	.	.	.
4.b-T	Gott,Kraft	8fL	.	4B-	.	8DL	.
.	.	8e-J	.	.	.	8CJ	.
.	.	8fL	.	8FL	.	8DL	.
8cc	wiedar-	8enJ	.	8GJ	.	8BB-J	.
=8	=8	=8	=8	=8	=8	=8	=8
2cc;	du?-zu,	2f;	.	2A;	.	2FF;	.
=:|!	=:|!	=:|!	=:|!	=:|!	=:|!	=:|!	=:|!
*>B	*	*>B	*	*>B	*	*>B	*
4a	dass	4f	.	4c	.	8FL	.
.	.	.	.	.	.	8E-J	.
=9	=9	=9	=9	=9	=9	=9	=9
4b-	ich	2f	.	4F	.	4D	ich
4cc	.	.	.	4A	.	8E-L	es
.	.	.	.	.	.	8D	.
4dd	es	4f	.	4B-	.	8C	.
.	.	.	.	.	.	8BB-J	.
=10	=10	=10	=10	=10	=10	=10	=10
4g	tu'	4.e-	.	4.B-	tu'	4.E-	.
8ggL	im	.	.	.	.	.	.
8ee-J	.	8g	.	8c	im	8E-	.
8ccL	Na-	8e-L	.	[4c	Na-	[4A-	.
8bnJ	.	8dJ	.	.	.	.	.
=11	=11	=11	=11	=11	=11	=11	=11
8ccL	-men	4e-	.	8c]	.	8A-]	.
8ddJ	.	.	.	8c	-men	8G	.
4.dd	Je-	4a-	.	4c	.	4F	.
.	.	4g	.	4Bn	.	4G	.
8ee-	-su	.	.	.	.	.	.
=12	=12	=12	=12	=12	=12	=12	=12
2ee-;	Christ,	2g;	.	2c;	.	2C;	.
4cc	so	4g	.	4c	.	4E-	.
=13	=13	=13	=13	=13	=13	=13	=13
! (8b-P/	!	!	!	!	!	!	!
4ap)	wie	4f	.	2c	wie	2F	.
8b-L	es	(4g	.	.	.	.	.
8a	.	.	.	.	.	.	.
8g	.	4a)	.	4c	es	4E-	.
8fJ	.	.	.	.	.	.	.
=14	=14	=14	=14	=14	=14	=14	=14
4.ff	dir	4.b-	dir	4.d	dir	4D	.
.	.	.	.	.	.	8GL	.
8b-	durch	8b-	durch	8d	.	8FJ	.
[4gg	ihn	4b-	ihn	4e-	.	8E-L	.
.	.	.	.	.	.	8DJ	.
=15	=15	=15	=15	=15	=15	=15	=15
8gg]	.	4b-	ge-	4B-	.	4E-	.
8ff	ge-	.	.	.	.	.	.
! (8ee-P/	!	!	!	!	!	!	!
4ddp)	-f√§l-	4b-	-f√§l-	4f	.	4F	.
8ccL	-lig	4a	-lig	8e-L	.	4FF	.
8b-J	.	.	.	8dJ	.	.	.
=16	=16	=16	=16	=16	=16	=16	=16
2b-;	ist.	2f;	ist.	2d;	.	2BB-;	.
==|!	==|!	==|!	==|!	==|!	==|!	==|!	==|!
*-	*-	*-	*-	*-	*-	*-	*-
!!!RWG: Appoggiaturas of spine '[SOPRANO]' need manual editing in measures: 13, 15
!!!RWG: Key is interpreted using the Humdrum key tool.
!!!END: 1994/05/17
!!!EMD: Converted from MuseData to Humdrum Dec 19, 2000, by Andreas Kornstaedt using muse2kern.
!!!EED: Craig Stuart Sapp
!!!EEV: 2024/03/31
!!!ONB: Some non-unicode characters
